X:662
T: SCHOENSTER ABENDSTERN
N: E0613
O: Europa, Mitteleuropa, Deutschland, Westfalen
R: Liebes - Lied
M: 2/4
L: 1/16
K: A
 | A4e4 | d3=cB4
A3BcBcA | GABGE4
d2d2d2d2 | e2d=cB4
A3BcBcA | GABGE4
A4e4 | =f2ede2
d2 | =c2A2cBAG | A4z4

